X: 111296
T: Knocknaboul Slide
S: "Johnny O'Leary of Sliabh Luachra" (#289)
Z: B.Black
L: 1/8
M: 12/8
Q: 350
R: slide
K: G
D|G2B d^cd e2f g2g|f/g/fe d2B cBA B2A|
G2B d^cd e2f gfe|d2B ABA G3 G2 :|
A|BcB ABA G2G GAB|c3 B2G A2G E2D|
B2B ABA G/A/GG gfe|d2B ABA G3 G2 :|
